X: 203
M: C
L: 1/8
K: A
|:\
aAAB  cdef | =g2(dc)  BdB=G | Aagb a2(eg) |a2(ed) cecA |
aAAB =cdef |  gde=c B(c/d/) (BG) | A/A/A (ag) a2(eg) | (ae).f.d (dB).A.G :|


